X: 94
T:Kathleen Hehir's Jig
R:Jig
S:Treoir, 1985 (recorded by De Danann)
M:6/8
L:1/8
Q:3/8=120
K:D
|:dcd e2d|c2E EFG|~B3 BAG|F2D DFA|
dcd e2d|c2E EFG|~A3 GFE|DED D2A:|
|:F2A ded|c2B ~G3|ABA G2E|B2A ~F3|
DFA ded|c2B G2F|EFG ABc|ded d2A:|
|:ded d2e|f2d ~A3|fgf fed|c2d ecA|
ded d2e|f2d A2F|EFG ABc|ded d2f:|
|:a2f fef|Adf agf|g2e ede|ABc efg|
a2f fef|Adf agf|ged ABc|ded d3:|
